X:393
T:Donald MacLean's Farewell To Oban 
C:Joe Buchanan's Scottish Tome - Page 349.0
I:349 0
R:March
Z:Carl Allison
L:1/16
M:2/4
K:A
(A>B) | c2(B<A) ef>e | c<eA>B {cd}c2a2 | f>e{f}(a>f) e<fA>B | e>cB<A {Bd}B2(A>B) |
{cd}c2(d>A) d2{fa}(f>e) | c>eA<B {cd}c2a2 | (f>e)(f<a) {f}e<fA>B | {cd}c2A2 A2 :|
(c>d) | {c}e2(c>d) {c}e2f>g | a2(f>g) a2>f2 | {ef}(e>c)(a>f) e<fA>c | ecBA {Bd}B2(c>d) |
{c}e2(c>d) {c}e2f>g | a2(f>g) a2>f2 | {ef}(e>c)(a>f) e<fA>B | {cd}c2A2 A2 :|
A>B | {cd}(c>A)c>d {f}(e>A)d>e | {fg}f>Ae<A c2(f>g) | (a>A)d>e {fg}(f<A)c>d | {f}e>dB<A {Bd}B2(A>B) |
{cd}(c<A)c>d {f}(e>A)d>e | {fg}e>Ad<e c2(f>g) | {g}a2(a>f) e<fA>B | {cd}c2A2 A2 :|
c2 | {f}e2{fg}(a>e) c2(a>e) | f>ga>f d2({f}a>f) | {df}e2({fa}a>f) {d}c2(A>c) | e>cB<A B2(c>d) |
{f}e2{fg}(a>e) c2(a>e) | f>ga>f d2{fg}(ag) | (f>e){f}(a>f) d<fA>B | {cd}c2A2 A2(c>d) |
{f}e2(a>e) {d}c2a>e | f>ga>f d2{fg}(a>f) | {f}e2{fa}(f>e) {d}c2(A>c) | e>cB<A {Bd}B2(A>B) |
(c<e)(d>f) e>cB<A | d>cB<A {d}c2{c}a2 | f>e{f}a>f e<fA>B | {cd}c2A2 !fermata![EA]2 |

